!!!COM:	Obrecht, Jacob
!!!CDT:	1458-1505/07/
!!!OPR:	Missa Adieu mes amours
!!!ONM:	2
!!!OTL:	Gloria
!!!AGN:	Mass; Gloria
!!!SCT:	Obr1001b
!!!SCA:	Obr1001b
!!!voices:	4
**kern	**kern	**kern	**kern
*staff4	*staff3	*staff2	*staff1
*Ivox	*Ivox	*Ivox	*Ivox
*I"Bassus	*I"Tenor	*I"Altus	*I"Superius
*I'B	*I'T	*I'A	*I'S
*>[A,B]	*>[A,B]	*>[A,B]	*>[A,B]
*>A	*>A	*>A	*>A
*clefF4	*clefGv2	*clefGv2	*clefG2
*k[b-]	*k[b-]	*k[b-]	*k[b-]
*M3/1	*M3/1	*M3/1	*M3/1
*met(O)	*met(O)	*met(O)	*met(O)
!!section: Et in terra pax
!!!OMD: Et in terra pax
=1-	=1-	=1-	=1-
0.r	0.r	0G	0g
.	.	1G	2d/
.	.	.	2e/
=2	=2	=2	=2
0.r	0.r	1.B-	2d/
.	.	.	2.g/
.	.	.	4a/
.	.	4A/	1b-
.	.	4G/	.
.	.	2B-\	.
.	.	2c\	4a/
.	.	.	4g/
=3	=3	=3	=3
0.r	0.r	2d\	1f
.	.	1f	.
.	.	.	1.cc
.	.	4e-i\	.
.	.	4d\	.
.	.	2e-i\	.
.	.	[2d\	4b-\
.	.	.	4a/
=4	=4	=4	=4
0.r	0.r	2d\]	2b-\
.	.	1c	2.a/
.	.	.	4g/
.	.	2B-\	1g
.	.	2c\	.
.	.	2r	2f/
=5	=5	=5	=5
0.r	0.r	1e-	1g
.	.	2e-i\	1b-
.	.	1e-i	.
.	.	.	2b-\
.	.	4d\	[2b-\
.	.	4c\	.
=6	=6	=6	=6
0.r	0.r	2d\	2b-\]
.	.	2e\	4a/
.	.	.	4g/
.	.	2f\	2a/
.	.	2.e\	1g
.	.	4d\	.
.	.	[2d\	2f/
=7	=7	=7	=7
1r	0.r	2d\]	1e
.	.	2c#i\	.
2r	.	1d	0d
2D\	.	.	.
2F\	.	2r	.
2F\	.	2d\	.
=8	=8	=8	=8
0.BB-	0.r	2f\	2r
.	.	2f\	2d/
.	.	2B-\	2f/
.	.	1f	2f/
.	.	.	2B-/
.	.	4e-i\	2b-\
.	.	4d\	.
=9	=9	=9	=9
2r	0.r	2e-i\	2cc\
2F\	.	2f\	2.dd\
1G	.	1B-	.
.	.	.	4cc\
.	.	.	1b-
1F	.	1c	.
.	.	.	2a/
=10	=10	=10	=10
2.G\	0.r	0.B-	0b-
4F\	.	.	.
2D\	.	.	.
1E-	.	.	.
.	.	.	1r
4D\	.	.	.
4C/	.	.	.
=11	=11	=11	=11
0BB-	0.r	1f	1dd
.	.	2f\	2dd\
.	.	1f	2dd\
1AA	.	.	2cc\
.	.	2f\	2a/
=12	=12	=12	=12
1GG	0.r	2.g\	2.b-\
.	.	4f\	8a/L
.	.	.	8g/J
[0BB-	.	2d\	2.f/
.	.	2.f\	.
.	.	.	4e/
.	.	.	4d/
.	.	4e\	4c/
.	.	4d\	[2B-/
.	.	4c\	.
=13	=13	=13	=13
0BB-]	0.r	2.B-\	4B-/]
.	.	.	4c/
.	.	.	4d/
.	.	4c\	4e/
.	.	4d\	4f/
.	.	4e\	4g/
.	.	2f\	4a/
.	.	.	4b-\
1r	.	4e\	4cc\
.	.	4d\	4b-\
.	.	2c\	4a/
.	.	.	4g/
=14	=14	=14	=14
2r	0.r	2.d\	2b-\
1F	.	.	2.a/
.	.	4c\	.
.	.	2d\	.
.	.	.	4g/
2G\	.	2B-\	1g
1D	.	1A	.
.	.	.	2f#i/
=15	=15	=15	=15
1.GG	0.G	0G	0g
2.C/	.	.	.
.	.	1r	1e
4BB-/	.	.	.
4C/	.	.	.
4BB-/	.	.	.
=16	=16	=16	=16
1.GG	0.B-	1r	1d
.	.	[0d	1r
2.G\	.	.	.
.	.	.	[1dd
4F\	.	.	.
4G\	.	.	.
4F\	.	.	.
=17	=17	=17	=17
1.D	0.A	2d\]	2dd\]
.	.	2.f\	4cc\
.	.	.	4b-\
.	.	.	1a
.	.	4e\	.
2.F\	.	4f\	.
.	.	4e\	.
.	.	[1c	[1cc
4E\	.	.	.
4F\	.	.	.
4E\	.	.	.
=18	=18	=18	=18
1.C	0.G	2c\]	2cc\]
.	.	2.e-\	4b-\
.	.	.	4a/
.	.	.	1g
.	.	4d\	.
2.E-\	.	4e-\	.
.	.	4d\	.
.	.	1B-	[1b-
4D\	.	.	.
4E-i\	.	.	.
4D\	.	.	.
=19	=19	=19	=19
1.BB-	0.d	2r	2b-\]
.	.	2.B-\	4a/
.	.	.	4g/
.	.	.	1f
.	.	4A/	.
2.D\	.	4B-\	.
.	.	4A/	.
.	.	[1F	[1a
4C/	.	.	.
4D\	.	.	.
4C/	.	.	.
=20	=20	=20	=20
1.AA	0.r	2F/]	2a/]
.	.	2.c\	4g/
.	.	.	4f/
.	.	.	1e
.	.	4B-\	.
2.C/	.	4c\	.
.	.	4B-\	.
.	.	2.G/	[1g
4BB-/	.	.	.
4C/	.	.	.
4BB-/	.	4A/	.
=21	=21	=21	=21
2.GG/	0.r	2.B-\	1g]
4BB-/	.	4A/	.
2AA/	.	2F/	1r
2GG/	.	2.G/	.
2.D\	.	.	1r
.	.	4B-\	.
.	.	2A/	.
4F\	.	.	.
=22	=22	=22	=22
2E\	0.r	2G/	0.r
2D\	.	2B-\	.
2C/	.	2A/	.
2BB-/	.	1G	.
1AA	.	.	.
.	.	2F/	.
=23	=23	=23	=23
2GG/	0.r	1.B-	2.g/
2.G\	.	.	.
.	.	.	4a/
.	.	.	4b-\
4F\	.	.	4g/
4F\	.	2c\	1cc
4E\	.	.	.
1G	.	1d	.
.	.	.	2bni\
=24	=24	=24	=24
2C/	[0.c	1c	2cc\
2.F\	.	.	2.a/
.	.	2F/	.
4E\	.	.	4g/
4E\	.	2G/	1g
4D\	.	.	.
1F	.	1A	.
.	.	.	2f/
=25	=25	=25	=25
1C	0c]	1G	2.g/
.	.	.	8f/L
.	.	.	8g/J
2FF/	.	1r	2a/
2.F\	.	.	2f/
.	1B-	1G	4g/
4E\	.	.	4f/
4E\	.	.	4e/
4D\	.	.	4d/
=26	=26	=26	=26
1F	1A	0c	2c/
.	.	.	1f
0C	0G	.	.
.	.	.	4e/
.	.	.	4d/
.	.	1c	1e
=27	=27	=27	=27
2FF/	0.F	2A/	0f
1BB-	.	2B-\	.
.	.	1c	.
2AA/	.	.	.
2.BB-/	.	4F/	2r
.	.	4G/	.
.	.	4A/	2B-/
4D\	.	4B-\	.
=28	=28	=28	=28
2C/	0.r	2c\	2A/
2BB-/	.	2.d\	2.B-/
2.D\	.	.	.
.	.	4B-\	4c/
.	.	1B-	2d/
4E\	.	.	.
1F	.	.	1c
.	.	2A/	.
=29	=29	=29	=29
2G\	0.r	0B-	2B-/
2D\	.	.	2f/
1G	.	.	4g/
.	.	.	4f/
.	.	.	1b-
1F	.	1c	.
.	.	.	2a/
=30	=30	=30	=30
2BB-/	0.r	0B-	0.b-
1E-	.	.	.
4D\	.	.	.
4C/	.	.	.
2D\	.	1r	.
2GG/	.	.	.
=31	=31	=31	=31
2r	0.r	0B-	0.r
2.GG/	.	.	.
4AA/	.	.	.
2BB-/	.	.	.
2C/	.	1A	.
2D\	.	.	.
=32	=32	=32	=32
2E-i\	0.r	2G/	0.r
2.D\	.	2.B-\	.
4C/	.	4A/	.
2BB-/	.	1G	.
1AA	.	.	.
.	.	2F#i/	.
=33	=33	=33	=33
0GG	0.r	1G	0b-
.	.	2r	.
.	.	1G	.
1D	.	.	1a
.	.	2F/	.
=34	=34	=34	=34
2E-i\	0.r	2G/	2g/
2D\	.	2F/	2.b-\
1E-i	.	1G	.
.	.	.	4a/
.	.	.	1g
1D	.	1A	.
.	.	.	2f/
=35	=35	=35	=35
2E-i\	2r	2G/	2g/
2D\	1A	1d	2f/
1E-i	.	.	1g
.	1G	2c\	.
1D	.	1d	2.a/
.	2F/	.	.
.	.	.	8g/L
.	.	.	8a/J
=36	=36	=36	=36
2GG/	2G/	2r	2b-\
2D\	2F/	1d	2.a/
1E-i	1G	.	.
.	.	.	4g/
.	.	2c\	1g
1D	1A	1d	.
.	.	.	2f#i/
=37	=37	=37	=37
0GG	0.G	0.d	0.g
1r	.	.	.
=38	=38	=38	=38
1.D	0.r	0.r	0.r
2D\	.	.	.
1E	.	.	.
=39	=39	=39	=39
1D	0.r	1.A	0.r
2C/	.	.	.
1D	.	2A/	.
.	.	1B-	.
2E\	.	.	.
=40	=40	=40	=40
2.F\	0.r	1A	0.r
8E\L	.	.	.
8D\J	.	.	.
2E\	.	2G/	.
2F\	.	1A	.
1D	.	.	.
.	.	2B-\	.
=41	=41	=41	=41
1C	0.r	2.c\	0.r
.	.	8B-/L	.
.	.	8A/J	.
2G\	.	2B-\	.
1G	.	2c\	.
.	.	1A	.
2F#i\	.	.	.
=42	=42	=42	=42
1G	0.r	1G	1b-
4G\	.	2d\	2b-\
4F\	.	.	.
4E-i\	.	1d	1b-
4D\	.	.	.
1E-i	.	.	.
.	.	2c\	4a/
.	.	.	4g/
=43	=43	=43	=43
1D	0.r	1d	1f
2r	.	4d\	2f/
.	.	4c\	.
2BB-/	.	4B-\	1f
.	.	4A/	.
2.D\	.	1B-	.
.	.	.	4e/
4E\	.	.	4d/
=44	=44	=44	=44
1F	0.r	1A	1c
2D\	.	2r	2d/
1D	.	2F/	1f
.	.	2.A/	.
4C/	.	.	4e/
4BB-/	.	4B-\	4d/
=45	=45	=45	=45
1AA	0.r	1c	2e/
.	.	.	2.c/
2r	.	2A/	.
.	.	.	4d/
2AA/	.	1A	2e/
1AA	.	.	2c/
.	.	4G/	[2e/
.	.	4F/	.
=46	=46	=46	=46
2r	0.r	1E	4e/]
.	.	.	4f/
2C/	.	.	2g/
1C	.	2r	2e/
.	.	2E/	2.g/
2r	.	1E	.
.	.	.	4a/
2E\	.	.	2b-\
=47	=47	=47	=47
1E	0.r	2r	2g/
.	.	2G/	2.b-\
2r	.	1G	.
.	.	.	4cc\
2G\	.	.	2dd\
[1G	.	2r	2b-\
.	.	2B-\	[2dd\
=48	=48	=48	=48
2G\]	0.r	1B-	4dd\]
.	.	.	4cc\
2.GG/	.	.	4b-\
.	.	.	4a/
.	.	2r	1b-
4AA/	.	.	.
4BB-/	.	2d\	.
4C/	.	.	.
2D\	.	[1d	[1a
[2D\	.	.	.
=49	=49	=49	=49
4D\]	0.r	2d\]	2a/]
4E\	.	.	.
4F\	.	2.D/	1f
4G\	.	.	.
2A\	.	.	.
.	.	4E/	.
2.A\	.	4F/	4e/
.	.	4G/	4d/
.	.	2A/	1c
4G\	.	.	.
4F\	.	[2A/	.
4E\	.	.	.
=50	=50	=50	=50
2.F\	0.r	4A/]	2r
.	.	4B-\	.
.	.	4c\	1cc
4E\	.	4d\	.
2C/	.	2e\	.
2D\	.	2.f\	2b-\
2F\	.	.	2a/
.	.	4e\	.
2G\	.	[2d\	[2b-\
=51	=51	=51	=51
1E	0.r	2d\]	2b-\]
.	.	2c\	4a/
.	.	.	4g/
1.D	.	1d	1.f
.	.	2r	.
2GG/	.	[2d\	2B-/
=52	=52	=52	=52
2.D\	0.r	2d\]	2.f/
.	.	4c\	.
4E\	.	4B-\	4g/
2F\	.	2A/	2a/
2G\	.	2G/	2b-\
2F\	.	2.d\	2a/
[2G\	.	.	[2b-\
.	.	4G/	.
=53	=53	=53	=53
2G\]	0.r	2B-\	4b-\]
.	.	.	4g/
2C/	.	2c\	1g
1D	.	1A	.
.	.	.	2f#i/
1GG	.	[1G	2.g/
.	.	.	4fni/
=54	=54	=54	=54
2.GG/	[0.G	1G]	2e/
.	.	.	1d
4AA/	.	.	.
4BB-/	.	2D/	.
4GG/	.	.	.
1C	.	2E-i/	2c/
.	.	1D	1d
2BBni/	.	.	.
=55	=55	=55	=55
1C	0.G]	1.E-i	1.g
1GG	.	.	.
.	.	2D/	1b-
1r	.	1E-i	.
.	.	.	4a/
.	.	.	4g/
=56	=56	=56	=56
1.GG	[0.B-	1D	0dd
.	.	1r	.
1BB-	.	.	.
.	.	1d	1r
4AA/	.	.	.
4GG/	.	.	.
=57	=57	=57	=57
0.G	0.B-]	1d	0dd
.	.	2B-\	.
.	.	1d	.
.	.	.	1b-
.	.	2e-\	.
=58	=58	=58	=58
0.F	0.A	1c	0cc
.	.	2A/	.
.	.	1c	.
.	.	.	1a
.	.	2d\	.
=59	=59	=59	=59
0.E-i	0.G	1B-	0b-
.	.	2G/	.
.	.	1B-	.
.	.	.	1g
.	.	2c\	.
=60	=60	=60	=60
0.D	[0.d	2A/	0a
.	.	1d	.
.	.	4c\	.
.	.	4B-\	.
.	.	1A	1f
=61	=61	=61	=61
0GG	0d]	0G	0g
1C	1c	1G	1e
=62	=62	=62	=62
2D\	2B-\	2F/	2d/
2C/	2.c\	2.G/	2.e/
1E-i	.	.	.
.	4B-\	4A/	4d/
.	4A/	4B-\	1g
.	4G/	4c\	.
1D	1A	[1dl	.
.	.	.	2f#i/
=63.	=63.	=63.	=63
0.GGl	0.Gl	0.d]	0.gl
!!LO:LB:i:g=z
=64||	=64||	=64||	=64||
*>B	*>B	*>B	*>B
*clefF4	*clefGv2	*clefGv2	*clefG2
*k[b-]	*k[b-]	*k[b-]	*k[b-]
*M2/1	*M2/1	*M2/1	*M2/1
*met(C|)	*met(C|)	*met(C|)	*met(C|)
!!section: Qui tollis
!!!OMD: Qui tollis
0r	0r	0D	0a
=65	=65	=65	=65
0r	0r	0r	1b-
.	.	.	2b-\
.	.	.	[2b-\
=66	=66	=66	=66
0r	0r	0G	2b-\]
.	.	.	1b-
.	.	.	4a/
.	.	.	4g/
=67	=67	=67	=67
0r	0r	[0d	1f
.	.	.	2B-/
.	.	.	[2f/
=68	=68	=68	=68
0r	0r	0d_	4f/]
.	.	.	4e/
.	.	.	4d/
.	.	.	4c/
.	.	.	2B-/
.	.	.	[2f/
=69	=69	=69	=69
0r	0r	0d]	4f/]
.	.	.	4g/
.	.	.	2a/
.	.	.	2d/
.	.	.	[2a/
=70	=70	=70	=70
0r	0r	[0c	2a/]
.	.	.	4g/
.	.	.	4f/
.	.	.	2e/
.	.	.	[2g/
=71	=71	=71	=71
0r	0r	0c]	4g/]
.	.	.	4f/
.	.	.	4e/
.	.	.	4d/
.	.	.	1e
=72	=72	=72	=72
0r	0r	1d	3.d/V
.	.	.	6e/
.	.	.	3f/Z
.	.	2d\	2B-/
.	.	[2d\	[2b-\
=73	=73	=73	=73
0r	0r	2d\]	2b-\]
.	.	4c\	4a/
.	.	4B-\	4g/
.	.	2c\	2a/
.	.	[2B-\	2b-\
=74	=74	=74	=74
0r	0r	4B-\]	2B-/
.	.	4F/	.
.	.	1B-	1d
.	.	4A/	4c/
.	.	4G/	4B-/
=75	=75	=75	=75
0r	0r	2A/	2c/
.	.	1G	2B-/
.	.	.	2.b-\
.	.	4F/	.
.	.	4E/	8a/L
.	.	.	8b-/J
=76	=76	=76	=76
0r	0r	2F/	2a/
.	.	2G/	1g
.	.	2r	.
.	.	[2B-\	4f/
.	.	.	4e/
=77	=77	=77	=77
0r	0r	2B-\]	2f/
.	.	4A/	2g/
.	.	4G/	.
.	.	2A/	2r
.	.	2B-\	[2b-\
=78	=78	=78	=78
0r	0r	2G/	2b-\]
.	.	1d	4a/
.	.	.	4g/
.	.	.	2a/
.	.	4c\	2b-\
.	.	4B-\	.
=79	=79	=79	=79
0r	0r	2c\	2g/
.	.	2d\	1dd
.	.	2B-\	.
.	.	[2f\	4cc\
.	.	.	4b-\
=80	=80	=80	=80
0r	0r	2f\]	2a/
.	.	4e\	2.cc\
.	.	4d\	.
.	.	2e\	.
.	.	.	4b-\
.	.	2f\	4a/
.	.	.	4g/
=81	=81	=81	=81
0r	0r	2d\	2.b-\
.	.	2.e-i\	.
.	.	.	4a/
.	.	.	4g/
.	.	4d\	4f/
.	.	4c\	[2a/
.	.	4B-\	.
=82	=82	=82	=82
0r	0r	2c\	4a/]
.	.	.	4g/
.	.	2B-\	1g
.	.	1A	.
.	.	.	2f#i/
=83	=83	=83	=83
0r	0r	1G	[0g
.	.	2c\	.
.	.	[2c\	.
=84	=84	=84	=84
1GG	0r	2c\]	0g]
.	.	2B-\	.
2C/	.	1c	.
[2C/	.	.	.
=85	=85	=85	=85
2C/]	0G	0r	0r
2BB-/	.	.	.
1C	.	.	.
=86	=86	=86	=86
1GG	[0d	0r	1g
2G\	.	.	2b-\
[2G\	.	.	[2b-\
=87	=87	=87	=87
2G\]	0d_	0r	2b-\]
2F\	.	.	2a/
1G	.	.	2b-\
.	.	.	4a/
.	.	.	4g/
=88	=88	=88	=88
1D	0d_	1A	1f
2GG/	.	2B-\	2g/
[2BB-/	.	[2B-\	[2g/
=89	=89	=89	=89
4BB-/]	0d_	2B-\]	2g/]
4C/	.	.	.
2D\	.	2A/	2f/
1GG	.	2B-\	2g/
.	.	4A/	4f/
.	.	4G/	4e/
=90	=90	=90	=90
1D	0d_	1F	2d/
.	.	.	1dd
2BB-/	.	2G/	.
2GG/	.	[2G/	4cc\
.	.	.	4b-\
=91	=91	=91	=91
1D	0d]	2G/]	1a
.	.	2F#i/	.
1GG	.	[1G	1g
=92	=92	=92	=92
1C	0c	1G]	2r
.	.	.	2.cc\
1E-	.	1G	.
.	.	.	4b-\
.	.	.	4a/
.	.	.	4g/
=93	=93	=93	=93
1D	[0d	2A/	1.f
.	.	1B-	.
[1BB-	.	.	.
.	.	4A/	2B-/
.	.	4G/	.
=94	=94	=94	=94
0BB-]	0d]	1F	1f
.	.	[1f	2g/
.	.	.	[2b-\
=95	=95	=95	=95
0F	0c	0f]	2b-\]
.	.	.	4a/
.	.	.	4g/
.	.	.	1a
=96	=96	=96	=96
1G	1B-	1d	1b-
1C	[1c	[1e-	[1a
=97	=97	=97	=97
0E-i	2c\]	2e-\]	2a/]
.	2B-\	2d\	2g/
.	1G	2c\	[1g
.	.	2B-\	.
=98	=98	=98	=98
0D	0A	[0d	1g]
.	.	.	1f#i
=99	=99	=99	=99
[0GG	[0G	0d]	0g
=100	=100	=100	=100
0GG]	0G]	0r	0r
=101	=101	=101	=101
[0C	0r	[0e	[0g
=102	=102	=102	=102
1C]	0r	1e]	1g]
1C	.	1c	1g
=103	=103	=103	=103
0E	0G	0c	0g
=104	=104	=104	=104
[0D	[0d	[0f	[0a
=105	=105	=105	=105
1D]	0d]	1f]	1a]
1D	.	1f	1a
=106	=106	=106	=106
1F	[0c	1f	1a
1F	.	1f	1a
=107	=107	=107	=107
0F	0c]	0f	0a
=108	=108	=108	=108
0BB-	0d	0f	0b-
=109	=109	=109	=109
1.F	0c	1r	0a
.	.	[1F	.
2E\	.	.	.
=110	=110	=110	=110
1D	1B-	1F]	1d
1C	[1A	[1E	1e
=111	=111	=111	=111
1.D	2A/]	2E/]	1f
.	2G/	2D/	.
.	[1G	[1D	1g
4C/	.	.	.
4BB-/	.	.	.
=112	=112	=112	=112
4C/	1G]	1D]	0a
4BB-/	.	.	.
4AA/	.	.	.
4GG/	.	.	.
1AA	1F#i	1C	.
=113	=113	=113	=113
0GG	1G	[0D	1.b-
.	1B-	.	.
.	.	.	4a/
.	.	.	4g/
=114	=114	=114	=114
1r	2A/	0D]	1f
.	1B-	.	.
1GG	.	.	1g
.	4A/	.	.
.	4G/	.	.
=115	=115	=115	=115
[0D	2A/	1r	2f/
.	2B-\	.	2g/
.	2A/	[1d	2f/
.	[2B-\	.	[2g/
=116	=116	=116	=116
0D]	2B-\]	0d]	2g/]
.	4A/	.	4f#i/
.	4G/	.	4e/
.	1A	.	1f#i
=117	=117	=117	=117
[0GG	[0G	1.B-	[0g
.	.	2c\	.
=118	=118	=118	=118
0GG]	0G]	0d	0g]
=119	=119	=119	=119
1AA	0r	0r	0r
[1C	.	.	.
=120	=120	=120	=120
2C/]	0r	0r	0r
2D\	.	.	.
1BB-	.	.	.
=121	=121	=121	=121
2AA/	0r	1A	0r
2.C/	.	.	.
.	.	[1c	.
4BB-/	.	.	.
[2AA/	.	.	.
=122	=122	=122	=122
2AA/]	0r	2c\]	0r
4GG/	.	2d\	.
4FF/	.	.	.
1GG	.	1B-	.
=123	=123	=123	=123
1AA	0r	2A/	1a
.	.	2.c\	.
1r	.	.	[1cc
.	.	4B-\	.
.	.	[2A/	.
=124	=124	=124	=124
0r	0r	2A/]	2cc\]
.	.	4G/	2dd\
.	.	4F/	.
.	.	1G	1b-
=125	=125	=125	=125
0r	0r	2.A/	2a/
.	.	.	2.cc\
.	.	4B-\	.
.	.	2c\	.
.	.	.	4b-\
.	.	[2d\	[2a/
=126	=126	=126	=126
0r	0r	4d\]	2a/]
.	.	4c\	.
.	.	4B-\	4g/
.	.	4A/	4f/
.	.	1B-	1g
=127	=127	=127	=127
2.D\	0r	1A	2.a/
4E\	.	.	4g/
2F\	.	1r	2f/
[2G\	.	.	[2e/
=128	=128	=128	=128
4G\]	0r	0r	4e/]
4F\	.	.	4d/
4E\	.	.	1d
4D\	.	.	.
1E	.	.	.
.	.	.	2c#i/
=129	=129	=129	=129
1D	0r	2.A/	2.d/
.	.	4G/	4e/
1r	.	2F/	2f/
.	.	[2E/	[2g/
=130	=130	=130	=130
0r	0r	4E/]	4g/]
.	.	4D/	4f/
.	.	1D	4e/
.	.	.	4d/
.	.	.	1e
.	.	2C#i/	.
=131	=131	=131	=131
2.A\	0r	2.D/	1d
4G\	.	4E/	.
2F\	.	2F/	1r
[2E\	.	[2G/	.
=132	=132	=132	=132
4E\]	0r	4G/]	0r
4D\	.	4F/	.
1D	.	4E/	.
.	.	4D/	.
.	.	1E	.
2C#i/	.	.	.
=133	=133	=133	=133
2.D\	0r	2D/	0r
.	.	2.F/	.
4E\	.	.	.
2F\	.	.	.
.	.	4G/	.
[2D\	.	2A/	.
=134	=134	=134	=134
4D\]	0r	2.F/	0r
4E\	.	.	.
2F\	.	.	.
.	.	4G/	.
2.D\	.	2A/	.
.	.	[2F/	.
4E\	.	.	.
=135	=135	=135	=135
2F\	0r	4F/]	0r
.	.	4G/	.
2D\	.	2A/	.
2BB-/	.	2B-\	.
[2C/	.	[2A/	.
=136	=136	=136	=136
4C/]	0r	4A/]	0r
4BB-/	.	4G/	.
4AA/	.	1G	.
4GG/	.	.	.
1AA	.	.	.
.	.	2F#i/	.
=137	=137	=137	=137
[0GG	0r	2.G/	2r
.	.	.	2.G/
.	.	4A/	.
.	.	4B-\	.
.	.	4c\	4A/
.	.	[2d\	4B-/
.	.	.	4c/
=138	=138	=138	=138
0GG]	0r	2d\]	4d/
.	.	.	4G/
.	.	2G/	2.B-/
.	.	2.B-\	.
.	.	.	4c/
.	.	.	4d/
.	.	4c\	4e/
=139	=139	=139	=139
[0D	0r	4d\	4f/
.	.	4e\	4B-/
.	.	2f\	2.d/
.	.	2B-\	.
.	.	.	4e/
.	.	[2d\	4f/
.	.	.	4g/
=140	=140	=140	=140
0D]	0r	4d\]	4a/
.	.	4e\	4d/
.	.	4f\	2.f/
.	.	4g\	.
.	.	2a\	.
.	.	.	4g/
.	.	[2f\	4a/
.	.	.	4b-\
=141	=141	=141	=141
1r	0r	4f\]	2cc\
.	.	4e\	.
.	.	2d\	1b-
1F	.	1c	.
.	.	.	2a/
=142	=142	=142	=142
1.G	[0d	1.B-	1b-
.	.	.	2r
4F\	.	4A/	[2dd\
4E\	.	4G/	.
=143	=143	=143	=143
0D	0d_	0F	2dd\]
.	.	.	4cc\
.	.	.	4b-\
.	.	.	2dd\
.	.	.	[2b-\
=144	=144	=144	=144
1.G	0d]	0r	2b-\]
.	.	.	4a/
.	.	.	4g/
.	.	.	2b-\
[2F\	.	.	[2a/
=145	=145	=145	=145
2F\]	0c	0r	2a/]
4E\	.	.	4g/
4D\	.	.	4f/
2F\	.	.	2a/
[2E-\	.	.	[2g/
=146	=146	=146	=146
2E-\]	0B-	0r	2g/]
4D\	.	.	4f/
4C/	.	.	4e/
2E-i\	.	.	2g/
[2D\	.	.	[2f/
=147	=147	=147	=147
2D\]	0A	0r	2f/]
4C/	.	.	4e-i/
4BB-/	.	.	4d/
2D\	.	.	2f/
[2C/	.	.	[2e-i/
=148	=148	=148	=148
2C/]	1.G	1c	2e-/]
4BB-/	.	.	4d/
4AA/	.	.	4c/
2GG/	.	[1B-	2e-i/
[2BB-/	2F/	.	[2d/
=149	=149	=149	=149
2BB-/]	2G/	2B-\]	2d/]
4AA/	2B-\	2.d\	1g
4GG/	.	.	.
1D	1A	.	.
.	.	4c\	.
.	.	4B-\	2f#i/
.	.	4A/	.
=150	=150	=150	=150
[0GG	0G	2B-\	1.g
.	.	2G/	.
.	.	2.B-\	.
.	.	.	[2b-\
.	.	4c\	.
=151	=151	=151	=151
0GG]	1G	1d	2b-\]
.	.	.	4a/
.	.	.	4g/
.	1B-	1G	1dd
=152	=152	=152	=152
0r	1A	0r	1cc
.	1G	.	1b-
=153	=153	=153	=153
0r	[0d	0r	0a
=154	=154	=154	=154
1D	0d]	1.A	0r
1F	.	.	.
.	.	2B-\	.
=155	=155	=155	=155
1E	0r	1c	0r
1D	.	1d	.
=156	=156	=156	=156
0A	0r	2e\	0r
.	.	1f	.
.	.	4e\	.
.	.	4d\	.
=157	=157	=157	=157
0A	0r	2f\	0r
.	.	1e	.
.	.	4d\	.
.	.	4c\	.
=158	=158	=158	=158
1.G	0r	2e\	0r
.	.	2.d\	.
.	.	4c\	.
2F\	.	4B-\	.
.	.	4A/	.
=159	=159	=159	=159
1E	0r	2G/	0r
.	.	1c	.
1D	.	.	.
.	.	2Bni\	.
=160	=160	=160	=160
[0C	1c	0c	2.cc\
.	.	.	4b-\
.	2c\	.	2a/
.	2B-\	.	[2g/
=161	=161	=161	=161
0C]	1A	1r	4g/]
.	.	.	4f/
.	.	.	1f
.	1G	1c	.
.	.	.	2e/
=162	=162	=162	=162
0r	[0F	2.A/	1.f
.	.	8B-\L	.
.	.	8c\J	.
.	.	2d\	.
.	.	[2c\	2e/
=163	=163	=163	=163
0r	0F]	4c\]	2d/
.	.	4B-\	.
.	.	1B-	4c/
.	.	.	4B-/
.	.	.	1c
.	.	4A/	.
.	.	4G/	.
=164	=164	=164	=164
1D	0r	1F	2B-/
.	.	.	1f
1F	.	1r	.
.	.	.	4e/
.	.	.	4d/
=165	=165	=165	=165
1E	0r	1G	2c/
.	.	.	2g/
1D	.	[1A	2f/
.	.	.	[2a/
=166	=166	=166	=166
0A	0r	2A/]	4a/]
.	.	.	4b-\
.	.	2B-\	2.cc\
.	.	1c	.
.	.	.	4b-\
.	.	.	4a/
.	.	.	4g/
=167	=167	=167	=167
1.G	1G	2d\	1.b-
.	.	2.e\	.
.	1B-	.	.
.	.	4d\	.
2F\	.	[2f\	4a/
.	.	.	4g/
=168	=168	=168	=168
1D	1A	4f\]	1f
.	.	4e\	.
.	.	1d	.
1E	1G	.	2.g/
.	.	2c#i\	.
.	.	.	4a/
=169	=169	=169	=169
0D	0d	2d\	2b-\
.	.	4c\	1a
.	.	4B-\	.
.	.	1A	.
.	.	.	4g/
.	.	.	4f/
=170	=170	=170	=170
1AA	1.c	4A/	2e/
.	.	4B-\	.
.	.	4c\	2a/
.	.	4d\	.
2C/	.	2e\	2g/
[2GG/	2B-\	[2d\	[2b-\
=171	=171	=171	=171
4GG/]	1G	4d\]	4b-\]
4AA/	.	4c\	4a/
2BB-/	.	2d\	1g
2C/	1A	2c\	.
2D\	.	2A/	2f#i/
=172	=172	=172	=172
*	*	*^	*
0GGl	0Gl	0B-l\	0dl/	0gl
*	*	*v	*v	*
==	==	==	==
*-	*-	*-	*-
!!!RDF**kern: l=long note in original notation
!!!RDF**kern: i=editorial accidental
!!!RDF**kern: V=start of tuplet marker
!!!RDF**kern: Z=end of tuplet marker
!!!ENC:	Chris Gage 09-06-2012
!!!END:	2013/05/07/
!!!EED:	Jesse Rodin
!!!EEV:	2014/01/03/
!!!ONB:	Translated from MusicXML and edited on 2014/01/03/ by Craig Sapp
!!muse2ps: T^@{OPR}^u^@{ONM}{. }@{OTL}^C^@{COM}^i2I150v85,85,85,150Q16
